X:1
T: The Priest's Leap
C:
R:Jig
Q:180
K:G
M:6/8
L:1/16
|:D2|G4G2 B2G2B2|d2e2f2 g2f2g2|e2c2A2 d2B2G2|F2A2G2 F2E2D2|
G4G2 B2G2B2|d2e2f2 g2f2g2|e2c2A2 d2B2G2|1F2E2F2 G4D2:|2F2EF2 G2B2d2|
|:e2f2e2 e2d2B2|d2e2f2 g4a2|b2a2g2 a2g2f2|g2f2e2 f2d2B2|
e2f2e2 e2d2B2|d2e2f2 g4a2|b2a2g2 a2g2f2|1g2f2g2 e4B2:|2g2f2e2 g4||


